public/icons/weather-icons/Snow.svg

<svg width="249" height="209" viewBox="0 0 249 209" fill="none" xmlns="http://www.w3.org/2000/svg">
<path fill-rule="evenodd" clip-rule="evenodd" d="M75.6951 111.521C76.8562 110.804 78.3847 111.162 79.109 112.321L114.621 169.141C115.345 170.3 114.991 171.82 113.83 172.537C112.669 173.253 111.141 172.895 110.416 171.736L74.9041 114.916C74.1798 113.758 74.5339 112.237 75.6951 111.521Z" fill="#42A0F0"/>
<path fill-rule="evenodd" clip-rule="evenodd" d="M89.9611 108.942C91.2762 109.276 92.0696 110.63 91.7332 111.966L87.6501 128.184C87.3136 129.52 85.9747 130.333 84.6596 129.999C83.3444 129.665 82.551 128.311 82.8875 126.974L86.9706 110.757C87.307 109.42 88.6459 108.608 89.9611 108.942Z" fill="#42A0F0"/>
<path fill-rule="evenodd" clip-rule="evenodd" d="M66.7494 123.584C67.0163 122.232 68.3117 121.349 69.6427 121.613L86.0576 124.861C87.3885 125.125 88.2511 126.434 87.9841 127.786C87.7172 129.138 86.4218 130.021 85.0908 129.758L68.6759 126.509C67.345 126.246 66.4824 124.936 66.7494 123.584Z" fill="#42A0F0"/>
<path fill-rule="evenodd" clip-rule="evenodd" d="M102.112 157.632C102.4 156.284 103.709 155.422 105.035 155.707L121.134 159.163C122.461 159.448 123.303 160.771 123.015 162.119C122.727 163.467 121.418 164.328 120.092 164.044L103.992 160.588C102.666 160.303 101.824 158.979 102.112 157.632Z" fill="#42A0F0"/>
<path fill-rule="evenodd" clip-rule="evenodd" d="M105.47 155.473C106.779 155.828 107.551 157.195 107.194 158.526L102.788 174.941C102.431 176.272 101.08 177.063 99.77 176.707C98.4603 176.352 97.6883 174.985 98.0455 173.655L102.451 157.24C102.809 155.909 104.16 155.118 105.47 155.473Z" fill="#42A0F0"/>
<path fill-rule="evenodd" clip-rule="evenodd" d="M111.735 110.442C112.874 111.046 113.244 112.576 112.562 113.859L81.1111 173.023C80.4288 174.307 78.9523 174.858 77.8132 174.254C76.6742 173.651 76.3039 172.121 76.9863 170.837L108.437 111.673C109.12 110.389 110.596 109.838 111.735 110.442Z" fill="#42A0F0"/>
<path fill-rule="evenodd" clip-rule="evenodd" d="M120.83 121.112C121.115 122.453 120.291 123.9 118.99 124.344L103.209 129.74C101.908 130.184 100.623 129.458 100.338 128.118C100.053 126.778 100.877 125.331 102.178 124.886L117.959 119.491C119.26 119.046 120.545 119.772 120.83 121.112Z" fill="#42A0F0"/>
<path fill-rule="evenodd" clip-rule="evenodd" d="M97.226 108.693C98.5035 108.154 99.8443 108.776 100.221 110.081L104.866 126.191C105.242 127.496 104.511 128.991 103.234 129.53C101.956 130.068 100.616 129.447 100.239 128.141L95.5943 112.032C95.2179 110.726 95.9484 109.231 97.226 108.693Z" fill="#42A0F0"/>
<path fill-rule="evenodd" clip-rule="evenodd" d="M85.4143 156.341C86.6976 155.824 88.0266 156.469 88.3827 157.782L92.7023 173.717C93.0584 175.031 92.3067 176.516 91.0233 177.034C89.74 177.552 88.411 176.906 88.0548 175.593L83.7353 159.658C83.3792 158.344 84.1309 156.859 85.4143 156.341Z" fill="#42A0F0"/>
<path fill-rule="evenodd" clip-rule="evenodd" d="M88.2832 157.803C88.5475 159.15 87.7035 160.586 86.3982 161.009L70.2885 166.236C68.9831 166.659 67.7107 165.911 67.4464 164.564C67.1822 163.216 68.0261 161.781 69.3315 161.358L85.4412 156.131C86.7465 155.708 88.019 156.456 88.2832 157.803Z" fill="#42A0F0"/>
<path fill-rule="evenodd" clip-rule="evenodd" d="M130.322 141.264C130.284 142.727 129.206 143.951 127.915 143.996L60.9525 146.341C59.6615 146.386 58.6457 145.236 58.6837 143.772C58.7217 142.309 59.799 141.085 61.09 141.04L128.053 138.695C129.344 138.65 130.36 139.8 130.322 141.264Z" fill="#42A0F0"/>
<path fill-rule="evenodd" clip-rule="evenodd" d="M125.736 154.231C124.924 155.409 123.452 155.662 122.448 154.795L110.139 144.16C109.135 143.293 108.98 141.634 109.793 140.456C110.605 139.277 112.078 139.025 113.081 139.892L125.39 150.526C126.394 151.394 126.549 153.052 125.736 154.231Z" fill="#42A0F0"/>
<path fill-rule="evenodd" clip-rule="evenodd" d="M125.295 127.669C126.125 128.745 125.996 130.422 125.007 131.413L112.708 143.735C111.718 144.726 110.244 144.657 109.414 143.58C108.583 142.503 108.713 140.827 109.702 139.836L122.001 127.514C122.99 126.523 124.465 126.592 125.295 127.669Z" fill="#42A0F0"/>
<path fill-rule="evenodd" clip-rule="evenodd" d="M78.1041 141.271C78.9188 142.363 78.767 144.038 77.765 145.012L65.4783 156.962C64.4763 157.937 63.0036 157.842 62.1888 156.75C61.3741 155.658 61.5259 153.983 62.528 153.009L74.8146 141.059C75.8166 140.085 77.2893 140.18 78.1041 141.271Z" fill="#42A0F0"/>
<path fill-rule="evenodd" clip-rule="evenodd" d="M77.6917 144.398C76.8639 145.563 75.3892 145.79 74.3981 144.904L62.0764 133.899C61.0852 133.013 60.9528 131.351 61.7806 130.186C62.6085 129.021 64.0831 128.794 65.0743 129.679L77.396 140.685C78.3872 141.57 78.5196 143.232 77.6917 144.398Z" fill="#42A0F0"/>
<path fill-rule="evenodd" clip-rule="evenodd" d="M166.194 148.161C166.946 148.488 167.284 149.362 166.95 150.113L153.438 180.457C153.104 181.208 152.223 181.551 151.471 181.224C150.719 180.896 150.381 180.022 150.715 179.271L164.227 148.927C164.561 148.177 165.442 147.833 166.194 148.161Z" fill="#42A0F0"/>
<path fill-rule="evenodd" clip-rule="evenodd" d="M171.234 153.571C171.51 154.363 171.115 155.22 170.352 155.486L162.724 158.137C161.962 158.402 161.12 157.974 160.844 157.182C160.568 156.39 160.962 155.533 161.725 155.268L169.353 152.617C170.116 152.352 170.958 152.779 171.234 153.571Z" fill="#42A0F0"/>
<path fill-rule="evenodd" clip-rule="evenodd" d="M158.389 147.725C159.126 147.394 159.998 147.748 160.338 148.515L163.787 156.311C164.127 157.078 163.804 157.968 163.068 158.299C162.331 158.63 161.459 158.277 161.119 157.51L157.67 149.713C157.33 148.946 157.653 148.056 158.389 147.725Z" fill="#42A0F0"/>
<path fill-rule="evenodd" clip-rule="evenodd" d="M154.198 171.696C154.94 171.377 155.808 171.745 156.135 172.517L159.412 180.239C159.739 181.011 159.404 181.895 158.662 182.214C157.919 182.533 157.052 182.165 156.725 181.393L153.448 173.671C153.12 172.899 153.456 172.015 154.198 171.696Z" fill="#42A0F0"/>
<path fill-rule="evenodd" clip-rule="evenodd" d="M156.407 172.85C156.671 173.646 156.263 174.496 155.496 174.749L147.699 177.316C146.932 177.568 146.096 177.127 145.833 176.331C145.569 175.535 145.976 174.685 146.743 174.432L154.54 171.865C155.307 171.613 156.143 172.053 156.407 172.85Z" fill="#42A0F0"/>
<path fill-rule="evenodd" clip-rule="evenodd" d="M176.635 162.902C176.704 163.766 176.126 164.533 175.345 164.615L142.311 168.085C141.53 168.167 140.841 167.533 140.773 166.669C140.704 165.805 141.281 165.038 142.062 164.956L175.097 161.486C175.878 161.404 176.566 162.038 176.635 162.902Z" fill="#42A0F0"/>
<path fill-rule="evenodd" clip-rule="evenodd" d="M174.771 170.012C174.313 170.694 173.422 170.817 172.78 170.285L166.31 164.924C165.668 164.392 165.52 163.408 165.978 162.726C166.436 162.043 167.327 161.921 167.968 162.452L174.439 167.814C175.08 168.345 175.229 169.329 174.771 170.012Z" fill="#42A0F0"/>
<path fill-rule="evenodd" clip-rule="evenodd" d="M173.309 156.194C173.909 156.782 173.981 157.773 173.469 158.408L168.237 164.898C167.725 165.532 166.824 165.569 166.225 164.981C165.625 164.393 165.553 163.402 166.065 162.768L171.297 156.278C171.809 155.643 172.71 155.606 173.309 156.194Z" fill="#42A0F0"/>
<path fill-rule="evenodd" clip-rule="evenodd" d="M150.452 164.551C151.044 165.149 151.101 166.141 150.581 166.766L145.328 173.072C144.807 173.697 143.905 173.719 143.313 173.121C142.722 172.523 142.664 171.532 143.185 170.907L148.438 164.601C148.958 163.976 149.86 163.954 150.452 164.551Z" fill="#42A0F0"/>
<path fill-rule="evenodd" clip-rule="evenodd" d="M150.669 166.81C150.201 167.484 149.307 167.591 148.673 167.049L142.183 161.503C141.549 160.961 141.414 159.975 141.882 159.301C142.35 158.627 143.243 158.52 143.878 159.062L150.368 164.608C151.002 165.15 151.137 166.136 150.669 166.81Z" fill="#42A0F0"/>
<path fill-rule="evenodd" clip-rule="evenodd" d="M169.238 179.421C168.604 179.878 167.68 179.683 167.174 178.986L147.651 152.112C147.144 151.414 147.247 150.478 147.88 150.021C148.513 149.564 149.438 149.759 149.944 150.457L169.467 177.33C169.974 178.028 169.871 178.964 169.238 179.421Z" fill="#42A0F0"/>
<path fill-rule="evenodd" clip-rule="evenodd" d="M162.369 181.16C161.563 180.983 160.987 180.182 161.082 179.369L162.043 171.23C162.139 170.417 162.87 169.902 163.677 170.079C164.483 170.256 165.06 171.057 164.964 171.87L164.003 180.009C163.908 180.822 163.176 181.337 162.369 181.16Z" fill="#42A0F0"/>
<path fill-rule="evenodd" clip-rule="evenodd" d="M173.316 173.24C173.246 174.057 172.534 174.598 171.725 174.448L163.476 172.918C162.667 172.768 162.067 171.984 162.136 171.166C162.206 170.349 162.918 169.808 163.728 169.958L171.976 171.488C172.785 171.638 173.385 172.422 173.316 173.24Z" fill="#42A0F0"/>
<path fill-rule="evenodd" clip-rule="evenodd" d="M154.653 157.621C154.571 158.436 153.849 158.965 153.041 158.802L144.942 157.168C144.134 157.005 143.545 156.212 143.627 155.397C143.71 154.582 144.432 154.053 145.24 154.216L153.339 155.85C154.147 156.013 154.735 156.806 154.653 157.621Z" fill="#42A0F0"/>
<path fill-rule="evenodd" clip-rule="evenodd" d="M153.093 158.682C152.288 158.493 151.723 157.683 151.832 156.873L152.939 148.625C153.048 147.816 153.788 147.313 154.593 147.503C155.398 147.693 155.963 148.502 155.854 149.312L154.747 157.56C154.638 158.369 153.898 158.872 153.093 158.682Z" fill="#42A0F0"/>
<g filter="url(#filter0_d_1506_811)">
<path d="M160.245 145.694H58.2973C48.4076 145.686 38.9043 141.853 31.7767 134.997C24.649 128.141 20.4499 118.794 20.0582 108.912C19.6665 99.0303 23.1126 89.3799 29.6752 81.9813C36.2378 74.5828 45.408 70.0097 55.2661 69.2194C56.6719 59.2927 61.1545 50.0565 68.0833 42.8102C75.0121 35.5639 84.0384 30.6723 93.8922 28.8235C103.746 26.9747 113.932 28.2618 123.016 32.5036C132.1 36.7455 139.626 43.7287 144.534 52.4707C153.537 49.3543 163.264 48.9901 172.474 51.4246C181.685 53.8591 189.962 58.9819 196.249 66.1397C202.536 73.2974 206.548 82.1656 207.774 91.6132C209 101.061 207.385 110.659 203.133 119.185C200.638 126.888 195.767 133.603 189.219 138.365C182.67 143.128 174.781 145.693 166.684 145.694H160.245Z" fill="url(#paint0_linear_1506_811)"/>
<path d="M166.684 145.161C170.796 145.161 174.838 144.504 178.699 143.21C182.433 141.958 185.938 140.131 189.117 137.78C192.26 135.455 195.015 132.671 197.305 129.504C199.624 126.298 201.414 122.771 202.626 119.021L202.639 118.983L202.657 118.946C204.268 115.726 205.509 112.319 206.345 108.82C207.206 105.22 207.642 101.5 207.642 97.7639C207.642 94.5477 207.318 91.3337 206.679 88.2112C206.056 85.1683 205.127 82.1752 203.917 79.3151C202.73 76.5067 201.259 73.798 199.548 71.2642C197.852 68.7543 195.905 66.3942 193.76 64.2492C191.615 62.1042 189.254 60.1569 186.745 58.4613C184.211 56.7494 181.502 55.2792 178.694 54.0914C175.834 52.8816 172.84 51.9525 169.798 51.3298C166.675 50.6908 163.461 50.3668 160.245 50.3668C154.92 50.3668 149.692 51.2433 144.709 52.9717L144.288 53.1175L144.07 52.7296C140.014 45.5179 134.115 39.4614 127.009 35.2149C123.416 33.0673 119.555 31.4078 115.535 30.2824C111.387 29.1212 107.078 28.5325 102.729 28.5325C96.8793 28.5325 91.1689 29.5854 85.7566 31.6618C80.5279 33.6678 75.7315 36.5654 71.5004 40.2742C67.2937 43.9617 63.8027 48.3126 61.1243 53.206C58.3801 58.2196 56.5865 63.6315 55.7934 69.2913L55.7341 69.7149L55.3076 69.7483C50.5369 70.1217 45.9469 71.3778 41.6651 73.4815C37.5046 75.5257 33.7894 78.2906 30.6228 81.6994C24.116 88.7038 20.5326 97.8298 20.5326 107.396C20.5326 112.495 21.531 117.44 23.5001 122.096C24.4465 124.333 25.6179 126.492 26.9819 128.51C28.3329 130.51 29.8845 132.391 31.5936 134.1C33.3026 135.809 35.1832 137.361 37.183 138.712C39.2019 140.075 41.3601 141.247 43.5977 142.193C48.2531 144.162 53.1987 145.161 58.2971 145.161H160.245H166.684ZM166.684 145.693H160.245H58.2971C37.1463 145.693 20 128.547 20 107.396C20 87.2653 35.5316 70.7621 55.266 69.2174C58.5303 45.9242 78.5364 28 102.729 28C120.677 28 136.321 37.8645 144.534 52.4686C149.456 50.7616 154.742 49.8343 160.245 49.8343C186.716 49.8343 208.174 71.2933 208.174 97.7639C208.174 105.463 206.359 112.739 203.133 119.185C198.162 134.568 183.722 145.693 166.684 145.693Z" fill="white" fill-opacity="0.5"/>
</g>
<defs>
<filter id="filter0_d_1506_811" x="0" y="-1.52588e-05" width="248.174" height="177.694" filterUnits="userSpaceOnUse" color-interpolation-filters="sRGB">
<feFlood flood-opacity="0" result="BackgroundImageFix"/>
<feColorMatrix in="SourceAlpha" type="matrix" values="0 0 0 0 0 0 0 0 0 0 0 0 0 0 0 0 0 0 127 0" result="hardAlpha"/>
<feOffset dx="10" dy="2"/>
<feGaussianBlur stdDeviation="15"/>
<feColorMatrix type="matrix" values="0 0 0 0 0 0 0 0 0 0 0 0 0 0 0 0 0 0 0.25 0"/>
<feBlend mode="normal" in2="BackgroundImageFix" result="effect1_dropShadow_1506_811"/>
<feBlend mode="normal" in="SourceGraphic" in2="effect1_dropShadow_1506_811" result="shape"/>
</filter>
<linearGradient id="paint0_linear_1506_811" x1="114.101" y1="28.0013" x2="168.763" y2="160.161" gradientUnits="userSpaceOnUse">
<stop stop-color="white" stop-opacity="0.604"/>
<stop offset="1" stop-color="white" stop-opacity="0.2"/>
</linearGradient>
</defs>
</svg>

<svg xmlns="http://www.w3.org/2000/svg" width="249" height="209" fill="none"><path fill="#42A0F0" fill-rule="evenodd" d="M75.695 111.521a2.49 2.49 0 0 1 3.414.8l35.512 56.82a2.456 2.456 0 0 1-.791 3.396 2.49 2.49 0 0 1-3.414-.801l-35.512-56.82a2.455 2.455 0 0 1 .791-3.395" clip-rule="evenodd"/><path fill="#42A0F0" fill-rule="evenodd" d="M89.961 108.942c1.315.334 2.109 1.688 1.772 3.024l-4.083 16.218c-.336 1.336-1.675 2.149-2.99 1.815s-2.109-1.688-1.772-3.025l4.083-16.217c.336-1.337 1.675-2.149 2.99-1.815" clip-rule="evenodd"/><path fill="#42A0F0" fill-rule="evenodd" d="M66.75 123.584c.266-1.352 1.562-2.235 2.893-1.971l16.415 3.248c1.33.264 2.193 1.573 1.926 2.925s-1.562 2.235-2.893 1.972l-16.415-3.249c-1.331-.263-2.194-1.573-1.927-2.925M102.112 157.632c.288-1.348 1.597-2.21 2.923-1.925l16.099 3.456c1.327.285 2.169 1.608 1.881 2.956s-1.597 2.209-2.923 1.925l-16.1-3.456c-1.326-.285-2.168-1.609-1.88-2.956" clip-rule="evenodd"/><path fill="#42A0F0" fill-rule="evenodd" d="M105.47 155.473c1.309.355 2.081 1.722 1.724 3.053l-4.406 16.415c-.357 1.331-1.708 2.122-3.018 1.766s-2.082-1.722-1.724-3.052l4.405-16.415c.358-1.331 1.709-2.122 3.019-1.767M111.735 110.442c1.139.604 1.509 2.134.827 3.417l-31.45 59.164c-.683 1.284-2.16 1.835-3.299 1.231s-1.51-2.133-.827-3.417l31.451-59.164c.683-1.284 2.159-1.835 3.298-1.231" clip-rule="evenodd"/><path fill="#42A0F0" fill-rule="evenodd" d="M120.83 121.112c.285 1.341-.539 2.788-1.84 3.232l-15.781 5.396c-1.301.444-2.586-.282-2.871-1.622s.539-2.787 1.84-3.232l15.781-5.395c1.301-.445 2.586.281 2.871 1.621" clip-rule="evenodd"/><path fill="#42A0F0" fill-rule="evenodd" d="M97.226 108.693c1.278-.539 2.618.083 2.995 1.388l4.645 16.11c.376 1.305-.355 2.8-1.632 3.339-1.278.538-2.618-.083-2.995-1.389l-4.645-16.109c-.376-1.306.354-2.801 1.632-3.339M85.414 156.341c1.284-.517 2.613.128 2.969 1.441l4.32 15.935c.355 1.314-.396 2.799-1.68 3.317s-2.612-.128-2.968-1.441l-4.32-15.935c-.356-1.314.396-2.799 1.68-3.317" clip-rule="evenodd"/><path fill="#42A0F0" fill-rule="evenodd" d="M88.283 157.803c.264 1.347-.58 2.783-1.885 3.206l-16.11 5.227c-1.305.423-2.577-.325-2.842-1.672-.264-1.348.58-2.783 1.886-3.206l16.11-5.227c1.305-.423 2.577.325 2.841 1.672M130.322 141.264c-.038 1.463-1.116 2.687-2.407 2.732l-66.962 2.345c-1.292.045-2.307-1.105-2.27-2.569.039-1.463 1.116-2.687 2.407-2.732l66.963-2.345c1.291-.045 2.307 1.105 2.269 2.569" clip-rule="evenodd"/><path fill="#42A0F0" fill-rule="evenodd" d="M125.736 154.231c-.812 1.178-2.284 1.431-3.288.564l-12.309-10.635c-1.004-.867-1.159-2.526-.346-3.704.812-1.179 2.285-1.431 3.288-.564l12.309 10.634c1.004.868 1.159 2.526.346 3.705" clip-rule="evenodd"/><path fill="#42A0F0" fill-rule="evenodd" d="M125.295 127.669c.83 1.076.701 2.753-.288 3.744l-12.299 12.322c-.99.991-2.464.922-3.294-.155s-.701-2.753.288-3.744l12.299-12.322c.989-.991 2.464-.922 3.294.155M78.104 141.271c.815 1.092.663 2.767-.339 3.741l-12.287 11.95c-1.002.975-2.474.88-3.29-.212-.814-1.092-.662-2.767.34-3.741l12.287-11.95c1.002-.974 2.474-.879 3.29.212" clip-rule="evenodd"/><path fill="#42A0F0" fill-rule="evenodd" d="M77.692 144.398c-.828 1.165-2.303 1.392-3.294.506l-12.322-11.005c-.99-.886-1.123-2.548-.295-3.713s2.302-1.392 3.293-.507l12.322 11.006c.991.885 1.124 2.547.296 3.713M166.194 148.161a1.47 1.47 0 0 1 .756 1.952l-13.512 30.344a1.5 1.5 0 0 1-1.967.767 1.473 1.473 0 0 1-.756-1.953l13.512-30.344a1.5 1.5 0 0 1 1.967-.766" clip-rule="evenodd"/><path fill="#42A0F0" fill-rule="evenodd" d="M171.234 153.571c.276.792-.119 1.649-.882 1.915l-7.628 2.651c-.762.265-1.604-.163-1.88-.955s.118-1.649.881-1.914l7.628-2.651c.763-.265 1.605.162 1.881.954" clip-rule="evenodd"/><path fill="#42A0F0" fill-rule="evenodd" d="M158.389 147.725c.737-.331 1.609.023 1.949.79l3.449 7.796c.34.767.017 1.657-.719 1.988-.737.331-1.609-.022-1.949-.789l-3.449-7.797c-.34-.767-.017-1.657.719-1.988M154.198 171.696c.742-.319 1.61.049 1.937.821l3.277 7.722c.327.772-.008 1.656-.75 1.975-.743.319-1.61-.049-1.937-.821l-3.277-7.722c-.328-.772.008-1.656.75-1.975" clip-rule="evenodd"/><path fill="#42A0F0" fill-rule="evenodd" d="M156.407 172.85c.264.796-.144 1.646-.911 1.899l-7.797 2.567c-.767.252-1.603-.189-1.866-.985s.143-1.646.91-1.899l7.797-2.567c.767-.252 1.603.188 1.867.985M176.635 162.902c.069.864-.509 1.631-1.29 1.713l-33.034 3.47c-.781.082-1.47-.552-1.538-1.416s.508-1.631 1.289-1.713l33.035-3.47c.781-.082 1.469.552 1.538 1.416" clip-rule="evenodd"/><path fill="#42A0F0" fill-rule="evenodd" d="M174.771 170.012c-.458.682-1.349.805-1.991.273l-6.47-5.361c-.642-.532-.79-1.516-.332-2.198.458-.683 1.349-.805 1.99-.274l6.471 5.362c.641.531.79 1.515.332 2.198" clip-rule="evenodd"/><path fill="#42A0F0" fill-rule="evenodd" d="M173.309 156.194c.6.588.672 1.579.16 2.214l-5.232 6.49c-.512.634-1.413.671-2.012.083-.6-.588-.672-1.579-.16-2.213l5.232-6.49c.512-.635 1.413-.672 2.012-.084M150.452 164.551c.592.598.649 1.59.129 2.215l-5.253 6.306c-.521.625-1.423.647-2.015.049-.591-.598-.649-1.589-.128-2.214l5.253-6.306c.52-.625 1.422-.647 2.014-.05" clip-rule="evenodd"/><path fill="#42A0F0" fill-rule="evenodd" d="M150.669 166.81c-.468.674-1.362.781-1.996.239l-6.49-5.546c-.634-.542-.769-1.528-.301-2.202s1.361-.781 1.996-.239l6.49 5.546c.634.542.769 1.528.301 2.202M169.238 179.421c-.634.457-1.558.262-2.064-.435l-19.523-26.874c-.507-.698-.404-1.634.229-2.091s1.558-.262 2.064.436l19.523 26.873c.507.698.404 1.634-.229 2.091" clip-rule="evenodd"/><path fill="#42A0F0" fill-rule="evenodd" d="M162.369 181.16c-.806-.177-1.382-.978-1.287-1.791l.961-8.139c.096-.813.827-1.328 1.634-1.151s1.383.978 1.287 1.791l-.961 8.139c-.095.813-.827 1.328-1.634 1.151" clip-rule="evenodd"/><path fill="#42A0F0" fill-rule="evenodd" d="M173.316 173.24c-.07.817-.782 1.358-1.591 1.208l-8.249-1.53c-.809-.15-1.409-.934-1.34-1.752.07-.817.782-1.358 1.592-1.208l8.248 1.53c.809.15 1.409.934 1.34 1.752M154.653 157.621c-.082.815-.804 1.344-1.612 1.181l-8.099-1.634c-.808-.163-1.397-.956-1.315-1.771s.805-1.344 1.613-1.181l8.099 1.634c.808.163 1.396.956 1.314 1.771" clip-rule="evenodd"/><path fill="#42A0F0" fill-rule="evenodd" d="M153.093 158.682c-.805-.189-1.37-.999-1.261-1.809l1.107-8.248c.109-.809.849-1.312 1.654-1.122s1.37.999 1.261 1.809l-1.107 8.248c-.109.809-.849 1.312-1.654 1.122" clip-rule="evenodd"/><g filter="url(#a)"><path fill="url(#b)" d="M160.245 145.694H58.297a38.3 38.3 0 0 1-28.622-63.713A38.3 38.3 0 0 1 55.266 69.22a47.94 47.94 0 0 1 89.268-16.748 47.953 47.953 0 0 1 58.599 66.714 38.31 38.31 0 0 1-36.449 26.509z"/><path fill="#fff" fill-opacity=".5" d="M166.684 145.161c4.112 0 8.154-.657 12.015-1.951a37.6 37.6 0 0 0 10.418-5.43 38 38 0 0 0 8.188-8.276 37.6 37.6 0 0 0 5.321-10.483l.013-.038.018-.037a47.2 47.2 0 0 0 3.688-10.126c.861-3.6 1.297-7.32 1.297-11.056 0-3.216-.324-6.43-.963-9.553a47.2 47.2 0 0 0-7.131-16.947 47.8 47.8 0 0 0-5.788-7.015 47.414 47.414 0 0 0-15.066-10.158 47 47 0 0 0-8.896-2.761 47.8 47.8 0 0 0-9.553-.963c-5.325 0-10.553.876-15.536 2.605l-.421.145-.218-.387a47.65 47.65 0 0 0-17.061-17.515 47.15 47.15 0 0 0-24.28-6.683A47.2 47.2 0 0 0 71.5 40.275a47.4 47.4 0 0 0-10.376 12.932 47 47 0 0 0-5.33 16.085l-.06.424-.426.033c-4.771.374-9.361 1.63-13.643 3.733A37.7 37.7 0 0 0 30.623 81.7a37.64 37.64 0 0 0-10.09 25.697 37.5 37.5 0 0 0 2.967 14.7 37.7 37.7 0 0 0 3.482 6.414 38 38 0 0 0 10.201 10.202 38 38 0 0 0 6.415 3.481 37.5 37.5 0 0 0 14.7 2.968h108.386m0 .532H58.297c-21.15 0-38.297-17.146-38.297-38.297 0-20.13 15.532-36.634 35.266-38.179C58.53 45.924 78.536 28 102.729 28c17.948 0 33.592 9.865 41.805 24.469a47.9 47.9 0 0 1 15.711-2.635c26.471 0 47.929 21.46 47.929 47.93a47.7 47.7 0 0 1-5.041 21.421c-4.971 15.383-19.411 26.508-36.449 26.508"/></g><defs><linearGradient id="b" x1="114.101" x2="168.763" y1="28.001" y2="160.161" gradientUnits="userSpaceOnUse"><stop stop-color="#fff" stop-opacity=".604"/><stop offset="1" stop-color="#fff" stop-opacity=".2"/></linearGradient><filter id="a" width="248.174" height="177.694" x="0" y="0" color-interpolation-filters="sRGB" filterUnits="userSpaceOnUse"><feFlood flood-opacity="0" result="BackgroundImageFix"/><feColorMatrix in="SourceAlpha" result="hardAlpha" values="0 0 0 0 0 0 0 0 0 0 0 0 0 0 0 0 0 0 127 0"/><feOffset dx="10" dy="2"/><feGaussianBlur stdDeviation="15"/><feColorMatrix values="0 0 0 0 0 0 0 0 0 0 0 0 0 0 0 0 0 0 0.25 0"/><feBlend in2="BackgroundImageFix" result="effect1_dropShadow_1506_811"/><feBlend in="SourceGraphic" in2="effect1_dropShadow_1506_811" result="shape"/></filter></defs></svg>
